X:1
T:Glädje Utan Gud Ej Finnes, 87.87 D
T:Glädje Utan Gud Ej Finnes, 87.87 D
T:Gustaf Düben (1628-1690)
T:Public Domain Courtesy of the Cyber Hymnal™
C:Gustaf Düben (1628-1690)
Z:Public Domain
Z:Courtesy of the Cyber Hymnal™
%%score ( 1 2 ) ( 3 4 )
L:1/8
Q:1/4=110
M:4/4
K:G
V:1 treble 
V:2 treble 
V:3 bass 
V:4 bass 
V:1
 [B,D]2 [DG]2 F3 z G | AB (cd) [DB]2 [B,G]2 | (Bc) [Dd]2 G3 z F | GA [DB]2 [DA]4 | %4
 [B,D]2 [DG]2 F3 z G | AB (cd) [DB]2 [B,G]2 | (Bc) [Dd]2 G3 z F | GA [DB]2 [DA]4 | %8
 [DA]2 [DA]2 [Dd]3 [Ec] | [DB]2 [DG]2 [Cc]2 [Ec]2 | [EB]2 A2 [E^G]3 [EA] | [=FA]2 [E^G]2 [EA]4 | %12
 [Dd]2 [DG]2 [DF]3 [DG] | (EF) [DG]2 [EA]2 [DA]2 | [DB]2 [EG]2 [Ec]3 [EB] | [EA]2 [DA]2 [B,G]4 |] %16
V:2
 x4 C2 D2 x | E2 D2 x4 | D2 x (B, C) D2 x2 | D2 x6 | x4 C2 D2 x | E2 D2 x4 | D2 x B, C D2 x2 | %7
 D2 x6 | x8 | x8 | x2 (CD) x4 | x8 | x8 | C2 x6 | x8 | x8 |] %16
V:3
 [G,,G,]2 [B,,G,]2 [A,,C]2 [B,,B,]2 x | (A,G,) [D,F,]2 [G,,G,]2 [G,,G,]2 | %2
 G,2 [F,A,]2 [E,G,]2 [D,A,]2 x | G,2 [G,,G,]2 [D,F,]4 | [G,,G,]2 [B,,G,]2 [A,,C]2 [B,,B,]2 x | %5
 (A,G,) [D,F,]2 [G,,G,]2 [G,,G,]2 | G,2 [F,A,]2 [E,G,]2 [D,A,]2 x | G,2 [G,,G,]2 [D,F,]4 | %8
 [D,F,]2 [C,F,]2 [B,,G,]3 [C,G,] | [G,,G,]2 B,2 [E,G,]2 [C,G,]2 | [E,^G,]2 [=F,A,]2 [E,B,]3 [C,C] | %11
 [D,B,]2 [E,B,]2 [A,C]4 | [F,A,]2 [G,B,]2 [D,A,]3 [B,,G,] | (G,A,) [B,,B,]2 (A,G,) [D,F,]2 | %14
 G,2 [E,B,]2 [A,,A,]3 [B,,G,] | (G,E,) [D,F,]2 [G,,D,G,]4 |] %16
V:4
 x9 | C,2 x6 | G,2 x7 | (B,,A,,) x6 | x9 | C,2 x6 | G,2 x7 | (B,,A,,) x6 | x8 | x2 (G,=F,) x4 | %10
 x8 | x8 | x8 | C,2 x ^C,2 x3 | G,2 x6 | C,2 x6 |] %16

